pix_core/f/pdf.svg

<svg fill="none" preserveAspectRatio="xMinYMid meet" viewBox="0 0 24 24" xmlns="http://www.w3.org/2000/svg"><g fill="#fff"><g clip-rule="evenodd" fill-rule="evenodd"><path d="m4.5 5c0-1.38071 1.11929-2.5 2.5-2.5h6.1716c.663 0 1.2989.26339 1.7677.73223l3.8285 3.82843c.4688.46884.7322 1.10473.7322 1.76777v10.17157c0 1.3807-1.1193 2.5-2.5 2.5h-10c-1.38071 0-2.5-1.1193-2.5-2.5 0-.2761.22386-.5.5-.5s.5.2239.5.5c0 .8284.67157 1.5 1.5 1.5h10c.8284 0 1.5-.6716 1.5-1.5v-10c0-.27614-.2239-.5-.5-.5h-3c-.8284 0-1.5-.67157-1.5-1.5v-3c0-.27614-.2239-.5-.5-.5h-6c-.82843 0-1.5.67157-1.5 1.5v6c0 .2761-.22386.5-.5.5s-.5-.2239-.5-.5zm10 2v-2.79289l3.2929 3.29289h-2.7929c-.2761 0-.5-.22386-.5-.5z"/><path d="m3.40694 12.6533c-.06618 0-.11983.0537-.11983.1198v4.2595c0 .0662.05365.1199.11983.1199h.87764c.06618 0 .11982-.0537.11982-.1199v-1.3985h.66128c.34612 0 .64972-.0566.90698-.1746.25864-.1178.46095-.2875.6015-.5102.14066-.2229.20865-.4838.20865-.7778 0-.2905-.06819-.5532-.20732-.7844-.13951-.2318-.34067-.4115-.59889-.5397-.25832-.1311-.56339-.1941-.91092-.1941zm1.65874 2.0566h-.66128v-1.1294h.66128c.15276 0 .26508.0302.34572.081.08612.0542.14684.1241.18553.2107.04149.093.06273.1942.06273.3052 0 .1088-.02116.2026-.0609.2837-.03673.0749-.09477.1351-.17944.1808-.08265.0426-.19814.068-.35364.068z"/><path d="m8.6764 17.1525h.1994c.30204 0 .58119-.0503.83501-.1522.25456-.1035.47449-.2502.65829-.4402.1856-.1919.3277-.4206.4267-.6844.1013-.2649.1511-.5555.1511-.8704v-.2019c0-.3166-.0497-.6073-.1512-.8705-.0989-.2637-.241-.4924-.4266-.6843-.1855-.1917-.4053-.3385-.6582-.4401-.25193-.1041-.52789-.1552-.82632-.1552h-1.31646c-.06618 0-.11983.0537-.11983.1198v4.2595c0 .0662.05365.1199.11983.1199h.32192v.0025h.78636zm-1.22811-4.3794.00176.0117v.0037zm1.1173 3.4551v-2.6477h.31899c.15588 0 .28887.0268.40155.0773l.00138.0006c.11229.0486.20666.1211.28429.219.07786.0982.13867.2222.18006.3752l.00036.0012c.04314.1528.0657.3335.0657.5438v.2077c0 .2738-.03983.5013-.11437.6841-.07219.1814-.17679.3136-.31161.4036-.13451.0879-.30438.1352-.51614.1352z"/></g><path d="m11.6446 12.7731c0-.0661.0536-.1198.1198-.1198h2.7792c.0662 0 .1198.0537.1198.1198v.6875c0 .0662-.0536.1199-.1198.1199h-1.7817v.8925h1.5769c.0662 0 .1199.0536.1199.1198v.6845c0 .0662-.0537.1199-.1199.1199h-1.5769v1.6354c0 .0662-.0537.1199-.1198.1199h-.8777c-.0662 0-.1198-.0537-.1198-.1199z"/></g></svg>

<svg viewBox="0 0 24 24" fill="none" xmlns="http://www.w3.org/2000/svg" preserveAspectRatio="xMinYMid meet">
<path fill-rule="evenodd" clip-rule="evenodd" d="M4.5 5C4.5 3.61929 5.61929 2.5 7 2.5H13.1716C13.8346 2.5 14.4705 2.76339 14.9393 3.23223L18.7678 7.06066C19.2366 7.5295 19.5 8.16539 19.5 8.82843V19C19.5 20.3807 18.3807 21.5 17 21.5H7C5.61929 21.5 4.5 20.3807 4.5 19C4.5 18.7239 4.72386 18.5 5 18.5C5.27614 18.5 5.5 18.7239 5.5 19C5.5 19.8284 6.17157 20.5 7 20.5H17C17.8284 20.5 18.5 19.8284 18.5 19V9C18.5 8.72386 18.2761 8.5 18 8.5H15C14.1716 8.5 13.5 7.82843 13.5 7V4C13.5 3.72386 13.2761 3.5 13 3.5H7C6.17157 3.5 5.5 4.17157 5.5 5V11C5.5 11.2761 5.27614 11.5 5 11.5C4.72386 11.5 4.5 11.2761 4.5 11V5ZM14.5 7V4.20711L17.7929 7.5H15C14.7239 7.5 14.5 7.27614 14.5 7Z" fill="#fff"/>
<path fill-rule="evenodd" clip-rule="evenodd" d="M3.40694 12.6533C3.34076 12.6533 3.28711 12.707 3.28711 12.7731V17.0326C3.28711 17.0988 3.34076 17.1525 3.40694 17.1525H4.28458C4.35076 17.1525 4.4044 17.0988 4.4044 17.0326V15.6341H5.06568C5.4118 15.6341 5.7154 15.5775 5.97266 15.4595C6.2313 15.3417 6.43361 15.172 6.57416 14.9493C6.71482 14.7264 6.78281 14.4655 6.78281 14.1715C6.78281 13.881 6.71462 13.6183 6.57549 13.3871C6.43598 13.1553 6.23482 12.9756 5.9766 12.8474C5.71828 12.7163 5.41321 12.6533 5.06568 12.6533H3.40694ZM5.06568 14.7099H4.4044V13.5805H5.06568C5.21844 13.5805 5.33076 13.6107 5.4114 13.6615C5.49752 13.7157 5.55824 13.7856 5.59693 13.8722C5.63842 13.9652 5.65966 14.0664 5.65966 14.1774C5.65966 14.2862 5.6385 14.38 5.59876 14.4611C5.56203 14.536 5.50399 14.5962 5.41932 14.6419C5.33667 14.6845 5.22118 14.7099 5.06568 14.7099Z" fill="#fff"/>
<path fill-rule="evenodd" clip-rule="evenodd" d="M8.6764 17.1525H8.8758C9.17784 17.1525 9.45699 17.1022 9.71081 17.0003C9.96537 16.8968 10.1853 16.7501 10.3691 16.5601C10.5547 16.3682 10.6968 16.1395 10.7958 15.8757C10.8971 15.6108 10.9469 15.3202 10.9469 15.0053V14.8034C10.9469 14.4868 10.8972 14.1961 10.7957 13.9329C10.6968 13.6692 10.5547 13.4405 10.3691 13.2486C10.1836 13.0569 9.9638 12.9101 9.7109 12.8085C9.45897 12.7044 9.18301 12.6533 8.88458 12.6533H7.56812C7.50194 12.6533 7.44829 12.707 7.44829 12.7731V17.0326C7.44829 17.0988 7.50194 17.1525 7.56812 17.1525H7.89004V17.155H8.6764V17.1525ZM7.44829 12.7731L7.45005 12.7848V12.7885L7.44829 12.7731ZM8.56559 16.2282V13.5805H8.88458C9.04046 13.5805 9.17345 13.6073 9.28613 13.6578L9.28751 13.6584C9.3998 13.707 9.49417 13.7795 9.5718 13.8774C9.64966 13.9756 9.71047 14.0996 9.75186 14.2526L9.75222 14.2538C9.79536 14.4066 9.81792 14.5873 9.81792 14.7976V15.0053C9.81792 15.2791 9.77809 15.5066 9.70355 15.6894C9.63136 15.8708 9.52676 16.003 9.39194 16.093C9.25743 16.1809 9.08756 16.2282 8.8758 16.2282H8.56559Z" fill="#fff"/>
<path fill="#fff" d="M11.6446 12.7731C11.6446 12.707 11.6982 12.6533 11.7644 12.6533H14.5436C14.6098 12.6533 14.6634 12.707 14.6634 12.7731V13.4606C14.6634 13.5268 14.6098 13.5805 14.5436 13.5805H12.7619V14.473H14.3388C14.405 14.473 14.4587 14.5266 14.4587 14.5928V15.2773C14.4587 15.3435 14.405 15.3972 14.3388 15.3972H12.7619V17.0326C12.7619 17.0988 12.7082 17.1525 12.6421 17.1525H11.7644C11.6982 17.1525 11.6446 17.0988 11.6446 17.0326V12.7731Z" fill="#fff"/>
</svg>
